static/icons/immutable.svg

<svg width="72" height="83" viewBox="0 0 72 83" fill="none" xmlns="http://www.w3.org/2000/svg">
<path d="M0.969892 6.60543L0.969795 6.60621H0.982295C1.27744 6.60621 1.52235 6.36252 1.52439 6.06781C1.68312 3.83046 3.56835 2.06459 5.80525 2.06459H12.7181C12.9967 2.06459 13.3004 1.87535 13.3004 1.52249C13.3004 1.18061 13.0091 0.940192 12.7181 0.940192H5.80525C2.97949 0.940192 0.604997 3.15114 0.400262 5.97649L0.4 5.97647V5.98372C0.4 6.14363 0.445998 6.28952 0.545833 6.40183C0.645694 6.51417 0.790609 6.58302 0.969892 6.60543Z" fill="#244583" stroke="#244583" stroke-width="0.2"/>
<path d="M16.6777 2.06459H19.2098C19.5463 2.06459 19.7921 1.81886 19.7921 1.4823C19.7921 1.14042 19.5007 0.9 19.2098 0.9H16.6777C16.3412 0.9 16.0954 1.14573 16.0954 1.4823C16.0954 1.82417 16.3868 2.06459 16.6777 2.06459Z" fill="#244583" stroke="#244583" stroke-width="0.2"/>
<path d="M53.7714 18.0618L53.7713 18.055L53.6508 7.45134C53.6508 7.45009 53.6508 7.44884 53.6508 7.44759C53.6486 6.23364 52.6173 5.2035 51.4029 5.2035H6.8308C5.61522 5.2035 4.62314 6.19557 4.62314 7.41115V67.1756C4.62314 68.3912 5.61522 69.3832 6.8308 69.3832H51.5637C52.7793 69.3832 53.7713 68.3912 53.7713 67.1756L53.7714 18.0618Z" fill="#EBECE9" stroke="#244583" stroke-width="1.2"/>
<path d="M53.1311 7.45134C53.1311 6.56713 51.8852 5.8035 50.3981 5.8035H47.5446C49.0316 5.8035 50.2776 6.52694 50.2776 7.45134L50.4785 18.0618V67.1756C50.4785 68.0598 49.313 68.7832 47.8259 68.7832H50.6795C52.1264 68.7832 53.3321 68.0598 53.3321 67.1756V18.0618L53.1311 7.45134Z" fill="#C1C1C1"/>
<path d="M60.8048 24.0697L60.8048 24.0629L60.6842 13.4592C60.6842 13.458 60.6842 13.4567 60.6842 13.4555C60.6821 12.2415 59.6507 11.2114 58.4364 11.2114H13.8642C12.6487 11.2114 11.6566 12.2035 11.6566 13.4191V73.1835C11.6566 74.3991 12.6487 75.3911 13.8642 75.3911H58.5971C59.8127 75.3911 60.8048 74.3991 60.8048 73.1835L60.8048 24.0697Z" fill="#EBECE9" stroke="#244583" stroke-width="1.2"/>
<path d="M60.1645 13.4592C60.1645 12.575 58.9185 11.8114 57.4315 11.8114H54.5779C56.065 11.8114 57.3109 12.5348 57.3109 13.4592L57.5118 24.0697V73.1835C57.5118 74.0677 56.3463 74.7911 54.8592 74.7911H57.7128C59.1597 74.7911 60.3654 74.0677 60.3654 73.1835V24.0697L60.1645 13.4592Z" fill="#C1C1C1"/>
<path d="M70.1272 64.8076C70.1272 65.1495 70.4186 65.3899 70.7095 65.3899C71.0004 65.3899 71.2918 65.1495 71.2918 64.8076V62.3158C71.2918 61.9792 71.046 61.7335 70.7095 61.7335C70.3676 61.7335 70.1272 62.0249 70.1272 62.3158V64.8076Z" fill="#244583" stroke="#244583" stroke-width="0.2"/>
<path d="M70.1272 78.3875C70.1272 78.7294 70.4186 78.9698 70.7095 78.9698C71.0004 78.9698 71.2918 78.7294 71.2918 78.3875V68.0985C71.2918 67.7619 71.046 67.5162 70.7095 67.5162C70.3676 67.5162 70.1272 67.8076 70.1272 68.0985V78.3875Z" fill="#244583" stroke="#244583" stroke-width="0.2"/>
<path d="M67.0138 30.2786L67.0137 30.2718L66.8932 19.6681C66.8932 19.6668 66.8932 19.6656 66.8932 19.6643C66.8911 18.4504 65.8597 17.4202 64.6454 17.4202H20.0732C18.8576 17.4202 17.8656 18.4123 17.8656 19.6279V79.3923C17.8656 80.6079 18.8576 81.6 20.0732 81.6H64.8061C66.0217 81.6 67.0138 80.6079 67.0138 79.3923L67.0138 30.2786Z" fill="#EBECE9" stroke="#244583" stroke-width="1.2"/>
<path d="M66.3735 19.668C66.3735 18.7838 65.1275 18.0202 63.6404 18.0202H60.7869C62.2739 18.0202 63.5199 18.7436 63.5199 19.668L63.7208 30.2785V79.3923C63.7208 80.2765 62.5553 80.9999 61.0682 80.9999H63.9218C65.3687 80.9999 66.5744 80.2765 66.5744 79.3923V30.2785L66.3735 19.668Z" fill="#C1C1C1"/>
<path d="M41.6156 30.9217C39.6462 32.2078 35.0242 34.9006 29.4376 36.0661C28.5534 36.2671 27.9506 37.0307 27.9506 37.9149V53.067C27.9506 54.6747 28.1917 56.2422 28.674 57.7694C29.6788 61.0651 31.7687 63.9589 34.5821 66.0086L42.0175 71.4345C42.4194 71.7158 42.9419 71.7158 43.384 71.4345L50.8194 66.0086C53.6328 63.9589 55.7227 61.0651 56.7275 57.7694C57.2098 56.2824 57.451 54.6747 57.451 53.067V37.9551C57.451 37.0307 56.8079 36.3073 55.9639 36.1063C50.2567 34.9006 45.6749 32.248 43.6654 30.9217C43.0223 30.5599 42.2185 30.5599 41.6156 30.9217Z" fill="#9FEFDE"/>
<path d="M56.1648 35.6642C56.0041 35.6241 55.8835 35.6241 55.6825 35.5839C55.9639 35.9054 56.1246 36.3475 56.1246 36.7896V52.3436C56.1246 53.9915 55.8835 55.5991 55.4012 57.1666C54.3562 60.5426 52.1055 63.557 49.1716 65.6469L41.2941 71.1933C41.0931 71.3541 40.8921 71.3943 40.651 71.3943L41.4548 71.957C41.8969 72.2383 42.4596 72.2383 42.8615 71.957L50.739 66.4106C53.673 64.3206 55.9237 61.3465 56.9687 57.9302C57.451 56.3628 57.6921 54.7551 57.6921 53.1073V37.5934C57.7725 36.669 57.0892 35.8652 56.1648 35.6642Z" fill="#24C4A1"/>
<path d="M56.1649 35.2222C50.4175 34.0165 45.7152 31.2031 43.9467 30.0375C43.1429 29.515 42.0979 29.515 41.2941 30.0375C39.4855 31.2433 34.7831 34.0165 29.0358 35.2222C27.8702 35.4633 27.0664 36.4681 27.0664 37.6337V53.0671C27.0664 54.7552 27.3076 56.403 27.7899 58.0107C28.8348 61.5073 31.0855 64.5216 33.9793 66.6518L41.5755 72.158C41.8568 72.3589 42.2185 72.4795 42.54 72.4795C42.8616 72.4795 43.2233 72.3991 43.5046 72.158L51.1008 66.6518C54.0348 64.5216 56.2453 61.4269 57.2903 58.0107C57.7725 56.403 58.0137 54.715 58.0137 53.0671V37.6739C58.1343 36.5083 57.3304 35.4633 56.1649 35.2222ZM57.0893 37.6739V53.1073C57.0893 54.715 56.8481 56.2422 56.406 57.7695C55.4013 61.025 53.3515 63.9188 50.6185 65.8881L43.0223 71.3944C42.7812 71.5551 42.4999 71.5551 42.2989 71.3944L34.6626 65.8881C31.8894 63.9188 29.8798 60.9848 28.875 57.7695C28.3927 56.2824 28.1918 54.715 28.1918 53.1073V37.6739C28.1918 36.9906 28.6741 36.4279 29.3573 36.3074C35.0645 35.1016 39.6865 32.4892 41.9372 31.0021C42.4195 30.7208 42.9822 30.7208 43.5046 31.0021C45.7152 32.449 50.3372 35.1016 56.0041 36.3074C56.6472 36.3877 57.0893 36.9906 57.0893 37.6739Z" fill="#244583"/>
<path d="M47.7247 42.7781L39.6864 51.9819L37.0338 49.8518C35.8682 48.8872 34.14 49.0882 33.1754 50.2537C32.2108 51.4193 32.4118 53.1475 33.5773 54.0719L40.2893 59.4575L51.784 46.315C52.7888 45.1896 52.6682 43.4614 51.5428 42.4566C50.4577 41.5322 48.7294 41.6126 47.7247 42.7781Z" fill="#EBECE9"/>
<path d="M53.0701 44.3456C53.0299 43.4614 52.628 42.6977 51.9447 42.135C50.5782 40.9695 48.5285 41.1303 47.3629 42.4164L39.606 51.1781L37.3955 49.3695C35.9888 48.2441 33.9792 48.4451 32.8137 49.8518C32.2912 50.535 32.0098 51.3388 32.0902 52.2231C32.1706 53.1073 32.6127 53.8709 33.296 54.3934L40.4098 60.1407L52.2663 46.5963C52.8289 46.0738 53.1103 45.1896 53.0701 44.3456ZM33.9792 53.6699C33.5371 53.268 33.2558 52.7455 33.1754 52.1829C33.1352 51.6202 33.2558 51.0173 33.6577 50.5752C34.0998 50.0527 34.7027 49.7714 35.3859 49.7714C35.8682 49.7714 36.3907 49.9723 36.7926 50.2537L39.8471 52.7053L48.1667 43.1398C48.9706 42.2154 50.3371 42.135 51.2615 42.9389C51.7036 43.3408 51.9849 43.8633 52.0251 44.4259C52.0653 44.9886 51.8643 45.5915 51.5026 46.0336L40.2892 58.7742L33.9792 53.6699Z" fill="#244583"/>
</svg>

<svg xmlns="http://www.w3.org/2000/svg" width="72" height="83" fill="none" xmlns:v="https://vecta.io/nano"><path d="M.97 6.605v.001h.013c.295 0 .54-.244.542-.538.159-2.237 2.044-4.003 4.281-4.003h6.913c.279 0 .582-.189.582-.542a.59.59 0 0 0-.582-.582H5.805C2.979.94.605 3.151.4 5.976h0v.007c0 .16.046.306.146.418s.245.181.424.204zm15.708-4.54h2.532c.336 0 .582-.246.582-.582A.59.59 0 0 0 19.21.9h-2.532a.56.56 0 0 0-.582.582.59.59 0 0 0 .582.582z" fill="#244583" stroke="#244583" stroke-width=".2"/><path d="M53.771 18.062v-.007l-.12-10.604c-.002-1.218-1.033-2.248-2.248-2.248H6.831c-1.216 0-2.208.992-2.208 2.208v59.764c0 1.216.992 2.208 2.208 2.208h44.733c1.216 0 2.208-.992 2.208-2.208V18.062z" fill="#ebece9" stroke="#244583" stroke-width="1.2"/><path d="M53.131 7.451c0-.884-1.246-1.648-2.733-1.648h-2.853c1.487 0 2.733.723 2.733 1.648l.201 10.61v49.114c0 .884-1.165 1.608-2.653 1.608h2.854c1.447 0 2.653-.723 2.653-1.608V18.062l-.201-10.61z" fill="#c1c1c1"/><path d="M60.805 24.07v-.007l-.121-10.604c-.002-1.218-1.033-2.248-2.248-2.248H13.864c-1.216 0-2.208.992-2.208 2.208v59.764c0 1.216.992 2.208 2.208 2.208h44.733c1.216 0 2.208-.992 2.208-2.208V24.07z" fill="#ebece9" stroke="#244583" stroke-width="1.2"/><path d="M60.165 13.459c0-.884-1.246-1.648-2.733-1.648h-2.854c1.487 0 2.733.723 2.733 1.648l.201 10.611v49.114c0 .884-1.166 1.608-2.653 1.608h2.854c1.447 0 2.653-.723 2.653-1.608V24.07l-.201-10.611z" fill="#c1c1c1"/><path d="M70.127 64.808a.59.59 0 0 0 .582.582.59.59 0 0 0 .582-.582v-2.492a.56.56 0 0 0-.582-.582.59.59 0 0 0-.582.582v2.492zm0 13.58a.59.59 0 0 0 .582.582.59.59 0 0 0 .582-.582V68.099a.56.56 0 0 0-.582-.582.59.59 0 0 0-.582.582v10.289z" fill="#244583" stroke="#244583" stroke-width=".2"/><path d="M67.014 30.279v-.007l-.121-10.604c-.002-1.218-1.033-2.248-2.248-2.248H20.073c-1.216 0-2.208.992-2.208 2.208v59.764c0 1.216.992 2.208 2.208 2.208h44.733c1.216 0 2.208-.992 2.208-2.208V30.279z" fill="#ebece9" stroke="#244583" stroke-width="1.2"/><path d="M66.374 19.668c0-.884-1.246-1.648-2.733-1.648h-2.853c1.487 0 2.733.723 2.733 1.648l.201 10.611v49.114c0 .884-1.165 1.608-2.653 1.608h2.854c1.447 0 2.653-.723 2.653-1.608V30.279l-.201-10.611z" fill="#c1c1c1"/><path d="M41.616 30.922c-1.969 1.286-6.591 3.979-12.178 5.144a1.89 1.89 0 0 0-1.487 1.849v15.152c0 1.608.241 3.175.723 4.702 1.005 3.296 3.095 6.19 5.908 8.239l7.435 5.426c.402.281.924.281 1.367 0l7.435-5.426c2.813-2.05 4.903-4.943 5.908-8.239.482-1.487.724-3.095.724-4.702V37.955c0-.924-.643-1.648-1.487-1.849-5.707-1.206-10.289-3.858-12.299-5.185-.643-.362-1.447-.362-2.05 0z" fill="#9fefde"/><path d="M56.165 35.664c-.161-.04-.281-.04-.482-.08.281.322.442.764.442 1.206v15.554a16.31 16.31 0 0 1-.723 4.823c-1.045 3.376-3.296 6.39-6.23 8.48l-7.877 5.546c-.201.161-.402.201-.643.201l.804.563c.442.281 1.005.281 1.407 0l7.877-5.546c2.934-2.09 5.185-5.064 6.23-8.48.482-1.567.723-3.175.723-4.823V37.593c.08-.924-.603-1.728-1.527-1.929z" fill="#24c4a1"/><path d="M56.165 35.222c-5.747-1.206-10.45-4.019-12.218-5.185a2.44 2.44 0 0 0-2.653 0c-1.809 1.206-6.511 3.979-12.258 5.185a2.45 2.45 0 0 0-1.969 2.411v15.433c0 1.688.241 3.336.723 4.944 1.045 3.497 3.296 6.511 6.189 8.641l7.596 5.506c.281.201.643.322.965.322s.683-.08.965-.322l7.596-5.506c2.934-2.13 5.145-5.225 6.19-8.641a17.32 17.32 0 0 0 .723-4.944V37.674c.121-1.166-.683-2.211-1.849-2.452zm.924 2.452v15.433c0 1.608-.241 3.135-.683 4.662-1.005 3.255-3.054 6.149-5.788 8.119l-7.596 5.506c-.241.161-.522.161-.723 0l-7.636-5.506c-2.773-1.969-4.783-4.903-5.788-8.119-.482-1.487-.683-3.054-.683-4.662V37.674a1.38 1.38 0 0 1 1.165-1.367c5.707-1.206 10.329-3.818 12.58-5.305.482-.281 1.045-.281 1.567 0 2.211 1.447 6.833 4.099 12.499 5.305.643.08 1.085.683 1.085 1.367z" fill="#244583"/><path d="M47.725 42.778l-8.038 9.204-2.653-2.13c-1.166-.965-2.894-.764-3.858.402s-.764 2.894.402 3.818l6.712 5.386 11.495-13.143c1.005-1.125.884-2.854-.241-3.858-1.085-.924-2.813-.844-3.818.322z" fill="#ebece9"/><path d="M53.07 44.346c-.04-.884-.442-1.648-1.125-2.211a3.32 3.32 0 0 0-4.582.281l-7.757 8.762-2.211-1.809c-1.407-1.125-3.416-.924-4.582.482-.522.683-.804 1.487-.723 2.371s.522 1.648 1.206 2.17l7.114 5.747 11.857-13.544c.563-.523.844-1.407.804-2.251zM33.979 53.67c-.442-.402-.723-.924-.804-1.487-.04-.563.08-1.166.482-1.608a2.21 2.21 0 0 1 1.728-.804c.482 0 1.005.201 1.407.482l3.054 2.452 8.32-9.565c.804-.924 2.17-1.005 3.095-.201.442.402.723.924.764 1.487a2.35 2.35 0 0 1-.523 1.608L40.289 58.774l-6.31-5.104z" fill="#244583"/></svg>
